X:32
T:There Cam' a Young Man to My Daddies Door
C:arr. Carlo Minasi
M:6/8
L:1/8
B:Chappell's One Hundred Scotch Melodies
B:Arranged for the Concertina by Carlo Minasi
Q:"Allegretto  "3/8=100
Z:Peter Dunk 2012
K:Bb
!p!D|(G>GA) [BG]([BG][cA)]|([dB][cA][BG]) [A2^F2D2] G|\
([FCA,]>GF) A2 B|(cfd) (cAF)|
|(G>GA) [BG]([BG][cA)]|([dB][cA][BG]) ([A^FD][BG][cA])|\
L[d2B2] G (G>A[^FC])|([G3B,3] [G2B,2])||
A|([B2F2D2] d) .f(fg)|(fdB) (fdB)|\
([F2C2A,2] A) (ccd)|(cfd) (cAF)|
([B2F2D2] d) .f(fg)|(fdB) (cdf)|\
L[g2d2B2G2] G (G>A[^FC])|([G3B,3] [G2B,2])||

